X: 21042
T: TYNEMOUTH CASTLE -- Hornpipe
R: hornpipe
B: K\"ohler's Violin Repository, v.2, 1885 p.104 #2
F: http://www.archive.org/details/klersviolinrepos02rugg
Z: 2012 John Chambers <jc:trillian.mit.edu>
M: C|
L: 1/8
K: Bb
((3uFGA) |\
BFGA Bcde | (f>b)a>g (g>f)e>d | (e>d)b>d (d>c)a>c | (c>B)g>B (A>F)G>A |
BFGA Bcde | (f>b)a>g (g>f)e>d | (e>d)b>d (d>c)a>c | c2B2 B2 :|
|: (uF>D) |\
(B,>D)F>B (d>B)A>B | (C>F)A>c e>c~c2 | (d>f)b>a (g>f)e>d | (3cdc (3BAG (3FGF (3EDC |
(B,>D)F>B (d>B)A>B | (C>F)A>c ec~c2 | (d>f)b>f (g>e)c>A | c2B2 B2 :|

%%sep 2 1 500

